X: 36360
T: Sean McGlynn's
R: jig
M: 6/8
K: Dmajor
G|:AFD EDA,|DFA d2A|def dAF|~G3 EFG|
AdB =c2A|GE=C EFG|FAF GE^C|ED^C D2E:|
|:DFA d2B|AFD EA,^C|DFA dfa|~g3 efg|
afd e^cA|d^cd AFD|A,DF GEA|ED^C D3:|

